img/sber.svg

<svg width="160" height="88" viewBox="0 0 160 88" fill="none" xmlns="http://www.w3.org/2000/svg">
<path d="M58.6984 40.2178C59.1918 40.8446 59.6096 41.5256 59.9431 42.247L50.4816 49.1002L46.5273 46.6646V43.7345L50.4816 46.1701L58.6984 40.2178Z" fill="white"/>
<path d="M42.4914 46.4575C42.4914 46.326 42.4947 46.1954 42.5012 46.0656L40.1048 45.9502C40.0967 46.1185 40.0918 46.2884 40.0918 46.4599C40.0908 47.7998 40.359 49.1267 40.8811 50.3644C41.4032 51.6022 42.1688 52.7265 43.1342 53.6729L44.834 52.0035C44.0909 51.2763 43.5014 50.412 43.0994 49.4602C42.6974 48.5084 42.4908 47.488 42.4914 46.4575Z" fill="white"/>
<path d="M50.4797 38.6087C50.6134 38.6087 50.7463 38.6135 50.8785 38.6199L50.9984 36.2645C50.8266 36.2565 50.6537 36.2524 50.4797 36.2524C49.1154 36.2508 47.7643 36.514 46.5038 37.0269C45.2434 37.5397 44.0984 38.2922 43.1348 39.241L44.8346 40.9112C45.5747 40.1809 46.4544 39.6014 47.4232 39.2063C48.392 38.8111 49.4307 38.608 50.4797 38.6087Z" fill="white"/>
<path d="M50.4805 54.3066C50.3467 54.3066 50.2138 54.3066 50.0808 54.2962L49.9609 56.6508C50.1333 56.6594 50.3065 56.6637 50.4805 56.6637C51.8442 56.665 53.1947 56.4017 54.4545 55.8887C55.7142 55.3757 56.8584 54.6231 57.8214 53.6743L56.1248 52.0049C55.3846 52.7349 54.5049 53.314 53.5363 53.709C52.5677 54.104 51.5292 54.3071 50.4805 54.3066Z" fill="white"/>
<path d="M54.9822 39.9787L57.0018 38.516C55.1559 37.0474 52.8518 36.2479 50.4766 36.252V38.609C52.0849 38.607 53.656 39.0846 54.9822 39.9787Z" fill="white"/>
<path d="M60.8661 46.4578C60.8673 45.8446 60.8128 45.2325 60.7029 44.6289L58.4672 46.2478C58.4672 46.3176 58.4672 46.3873 58.4672 46.4578C58.4678 47.5544 58.2339 48.6389 57.7806 49.6409C57.3273 50.643 56.6647 51.5403 55.8359 52.2746L57.4485 54.0258C58.526 53.07 59.387 51.9024 59.9758 50.5987C60.5646 49.2949 60.8679 47.8841 60.8661 46.4578Z" fill="white"/>
<path d="M50.4815 54.3062C49.3653 54.3065 48.2616 54.0766 47.2416 53.6312C46.2217 53.1858 45.3083 52.5349 44.5607 51.7207L42.7793 53.3044C43.7519 54.3633 44.9402 55.2094 46.2671 55.7881C47.5939 56.3667 49.0297 56.6648 50.4815 56.6632V54.3062Z" fill="white"/>
<path d="M45.1227 40.6408L43.511 38.8896C42.4332 39.8453 41.5718 41.0128 40.9828 42.3166C40.3937 43.6203 40.0902 45.0312 40.0918 46.4576H42.4914C42.4909 45.3611 42.7249 44.2766 43.1782 43.2746C43.6315 42.2725 44.294 41.3752 45.1227 40.6408Z" fill="white"/>
<path d="M100.033 42.0895L103.005 39.9624H93.0586V52.7442H103.005V50.6171H95.8968V47.343H101.961V45.216H95.8968V42.0895H100.033Z" fill="white"/>
<path d="M86.3659 44.9417H82.9127V42.0886H88.4239L91.3941 39.9551H80.0762V52.7368H86.0006C89.3221 52.7368 91.2284 51.2744 91.2284 48.7239C91.2284 46.2839 89.5018 44.9417 86.3659 44.9417ZM85.8729 50.6091H82.9127V47.0675H85.8729C87.6694 47.0675 88.5117 47.661 88.5117 48.8383C88.5117 50.0156 87.6154 50.6091 85.8729 50.6091Z" fill="white"/>
<path d="M110.317 39.9604H104.902V52.7422H107.74V49.1213H110.317C113.771 49.1213 115.908 47.3555 115.908 44.5341C115.908 41.7127 113.771 39.9604 110.317 39.9604ZM110.257 46.9927H107.74V42.0891H110.257C112.074 42.0891 113.076 42.9604 113.076 44.5419C113.076 46.1233 112.074 46.9927 110.257 46.9927Z" fill="white"/>
<path d="M75.8191 49.7258C75.086 50.1114 74.2647 50.3111 73.4311 50.3064C70.9361 50.3064 69.1262 48.576 69.1262 46.1933C69.1262 43.8105 70.9361 42.0764 73.4311 42.0764C74.3308 42.0616 75.2119 42.3266 75.9456 42.8329L77.9307 41.4126L77.7964 41.32C76.6385 40.331 75.0912 39.8071 73.3202 39.8071C71.3993 39.8071 69.6575 40.435 68.4139 41.5772C67.785 42.1653 67.2878 42.873 66.9529 43.6561C66.6181 44.4393 66.4529 45.281 66.4677 46.129C66.4544 46.9855 66.6188 47.8358 66.9512 48.6293C67.2836 49.4227 67.7771 50.1429 68.4022 50.747C69.6516 51.9346 71.3896 52.5889 73.2968 52.5889C75.2897 52.5889 77.0316 51.9137 78.211 50.6846L76.4341 49.3987L75.8191 49.7258Z" fill="white"/>
</svg>

<svg xmlns="http://www.w3.org/2000/svg" width="160" height="88" fill="none"><path fill="#fff" d="M58.698 40.218c.494.627.912 1.308 1.245 2.029L50.482 49.1l-3.955-2.435v-2.93l3.955 2.435 8.216-5.952ZM42.491 46.458c0-.132.004-.263.01-.392l-2.396-.116a10.024 10.024 0 0 0 .776 4.414 10.168 10.168 0 0 0 2.253 3.309l1.7-1.67a7.813 7.813 0 0 1-1.735-2.543 7.704 7.704 0 0 1-.608-3.002ZM50.48 38.609c.133 0 .266.005.399.01l.12-2.355a10.519 10.519 0 0 0-4.495.762 10.372 10.372 0 0 0-3.37 2.215l1.7 1.67a7.97 7.97 0 0 1 2.59-1.705 8.08 8.08 0 0 1 3.056-.597ZM50.48 54.307c-.133 0-.266 0-.4-.01l-.12 2.354a10.513 10.513 0 0 0 4.494-.762 10.368 10.368 0 0 0 3.367-2.215l-1.696-1.67c-.74.73-1.62 1.31-2.589 1.705a8.084 8.084 0 0 1-3.056.598Z"/><path fill="#fff" d="m54.982 39.979 2.02-1.463a10.455 10.455 0 0 0-6.525-2.264v2.357a8.045 8.045 0 0 1 4.505 1.37ZM60.866 46.458a10.099 10.099 0 0 0-.163-1.83l-2.236 1.62v.21a7.71 7.71 0 0 1-.686 3.183 7.834 7.834 0 0 1-1.945 2.634l1.613 1.75a10.19 10.19 0 0 0 2.527-3.426c.589-1.304.892-2.715.89-4.141ZM50.481 54.306c-1.116 0-2.22-.23-3.24-.675a7.967 7.967 0 0 1-2.68-1.91l-1.782 1.583a10.354 10.354 0 0 0 3.488 2.484c1.327.579 2.763.877 4.214.875v-2.357ZM45.123 40.64l-1.612-1.75a10.188 10.188 0 0 0-2.528 3.427 10.026 10.026 0 0 0-.891 4.14h2.4c-.001-1.096.233-2.18.686-3.182a7.836 7.836 0 0 1 1.945-2.634ZM100.033 42.09l2.972-2.128h-9.946v12.782h9.946v-2.127h-7.108v-3.274h6.064v-2.127h-6.064v-3.127h4.136ZM86.366 44.942h-3.453v-2.853h5.51l2.971-2.134H80.076v12.782h5.925c3.321 0 5.227-1.463 5.227-4.013 0-2.44-1.726-3.782-4.862-3.782Zm-.493 5.667h-2.96v-3.541h2.96c1.796 0 2.639.593 2.639 1.77 0 1.178-.897 1.771-2.64 1.771ZM110.317 39.96h-5.415v12.782h2.838v-3.62h2.577c3.454 0 5.591-1.767 5.591-4.588s-2.137-4.574-5.591-4.574Zm-.06 7.033h-2.517v-4.904h2.517c1.817 0 2.819.871 2.819 2.453 0 1.581-1.002 2.45-2.819 2.45ZM75.82 49.726a5.071 5.071 0 0 1-2.389.58c-2.495 0-4.305-1.73-4.305-4.113 0-2.383 1.81-4.117 4.305-4.117.9-.014 1.78.25 2.515.757l1.985-1.42-.135-.093c-1.158-.989-2.705-1.513-4.476-1.513-1.92 0-3.662.628-4.906 1.77a6.169 6.169 0 0 0-1.461 2.08 6.02 6.02 0 0 0-.485 2.472 6.218 6.218 0 0 0 .483 2.5 6.37 6.37 0 0 0 1.451 2.118c1.25 1.188 2.988 1.842 4.895 1.842 1.993 0 3.735-.675 4.914-1.904l-1.777-1.286-.615.327Z"/></svg>
